icons/lines/calculator.svg

<svg xmlns="http://www.w3.org/2000/svg" width="24" height="24" viewBox="0 0 24 24" fill="none" stroke="currentColor" stroke-width="2" stroke-linecap="round" stroke-linejoin="round" >
  <path d="M10 22H14C19 22 21 20 21 15V9C21 4 19 2 14 2H10C5 2 3 4 3 9V15C3 20 5 22 10 22Z"/>
  <path d="M16.5 7.58002V8.58002C16.5 9.40002 15.83 10.08 15 10.08H9C8.18 10.08 7.5 9.41002 7.5 8.58002V7.58002C7.5 6.76002 8.17 6.08002 9 6.08002H15C15.83 6.08002 16.5 6.75002 16.5 7.58002Z"/>
  <path d="M8.13612 14H8.14767"/>
  <path d="M11.995 14H12.0066"/>
  <path d="M15.8544 14H15.8659"/>
  <path d="M8.13612 17.5H8.14767"/>
  <path d="M11.995 17.5H12.0066"/>
  <path d="M15.8544 17.5H15.8659"/>
  </svg>

<svg xmlns="http://www.w3.org/2000/svg" width="24" height="24" viewBox="0 0 24 24" fill="none" stroke="currentColor" stroke-width="2" stroke-linecap="round" stroke-linejoin="round">
  <path d="M11.995 14h.01" />
  <path d="M11.995 17.5h.01" />
  <path d="M14 22c5 0 7-2 7-7V9c0-5-2-7-7-7h-4C5 2 3 4 3 9v6c0 5 2 7 7 7z" />
  <path d="M15.854 14h.01" />
  <path d="M15.854 17.5h.01" />
  <path d="M16.5 8.58a1.504 1.504 0 0 1-1.5 1.5H9a1.504 1.504 0 0 1-1.5-1.5v-1A1.504 1.504 0 0 1 9 6.08h6a1.5 1.5 0 0 1 1.5 1.5z" />
  <path d="M8.136 14h.01" />
  <path d="M8.136 17.5h.01" />
</svg>
